X: 7
M: 4/4
L: 1/4
K: C
V: 1 clef=treble
|  "C5"[G,4 C4] | "G5"[D4 G4] | "A5"[E4 A4]  | "F5"[C4 F4]  ||  "C"[C4 E4 G4 ] | "G"[G4 B4 D4] | "Am"[A4 C4 E4]  | "F"[F4 A4 C4]  ||
V: 2 clef=bass
|  C,4          | G,4         | A,4          | F,4          ||  [C,4 G,4]      | [G,4 D,4]     | [A,4 E,4]       | [F,4 C,4]       ||
w: I              V             vi             IV               I                V               vi                IV              
